!!!SOCIAL_FUNCTION:	songs of the sun dance
!!!PDT:	1918

Specific Region: Dakotas, Minnesota, Montana, Nebraska
!!!REG: Dakotas and Montana
!!!LING_GROUP: Siouan
!!!LANG: Tone
!!!OTL@ENG: Dancing Song (b)
!!!ONM: No. 30
**kern
*Imale
*clefF4
*k[f#c#]
*M2/4
*>[A,A]
*>norep[A]
*>A
=1!|:
*MM80
8a
8a
16a
16f#
8f#
=2
16f#
16e
16e
16d
16e
16d
8d
=3
8d
8d
16d
16B
8B
=4
16d
16d
8d
8f#
8f#
=5
16f#
16e
8e
16e
16d
8d
=6
16d
16B
8B
8B
8A
=7||
*M3/4
16A
16F#
8F#
16F#
16E
16E
16D
8F#
8F#
=8||
*M2/4
16A
16A
8A
16A
16F#
8F#
=9
16F#
16E
16E
16D
16E
16D
8D
=10
16D
16C#
8D
16D
16C#
8D
=11
16d
16d
8d
16f#
16f#
8f#
=12
16f#
16e
8e
16e
16d
8d
=13
16d
16B
8B
8B
8A
=14||
*M3/4
16A
16F#
8F#
16F#
16E
16E
16D
8F#
8F#
=15||
*M2/4
16A
16A
8A
16A
16F#
8F#
=16
16F#
16E
16E
16D
16E
16D
8D
=17
8D
8C#
4D
==:|!
*-
!!!CNT: Native American -- Sioux
!!!MRD: 1911/07//-1914///
!!!OCL: Frances Densmore
!!!YOR1: Teton Sioux Music, Bulletin 61,
!!!YOR2: Bureau of American Ethnology, Smithsonian Institution
!!!PPR: Government Printing Office
!!!PPP: Washington, D.C.
!!!PDT: 1918///
!!!ENC: Craig Stuart Sapp
!!!END: 2002/03/25/
!!!EEV: 2002/03/31/
!!!AGN: Ceremonial Song/Song of the Sun Dance
!!!MPN@@SIO: Zintka'la-lu'ta
!!!MPN@ENG: Red Bird
!!!TXO: Teton Sioux
!!!MLC: Standing Rock Reservation, South Dakota, United States of America
!!!ARL: 45.9/-100.7#
!!!catalog: Catalogue No. 505
!!!PPG: 144
!!!EFL: 30/245
!!!VTS: 26832310
